X:7694
T:Tripping to the Well
O:england
N:IrTrad, 6/99
S:Charlie Harris, Willie Clancy Summer School 1998
R:polka
M:2/4
Q:220
L:1/8
K:G
D|:G>A BG|EG ED|G>A Bd|BA A2|G>A BG|EG ED|dB D/E/G/A/|1 BG GD:|2 BG G2||
|:dB G>A|BG ED|dB G/F/G/A/|BA A2|dB G>A|BG ED|dB D/E/G/A/|BG G2||
